packages/core/src/svgs/polx.svg

<svg width="24" height="24" viewBox="0 0 24 24" fill="none" xmlns="http://www.w3.org/2000/svg">
<g clip-path="url(#clip0_31_16203)">
<path d="M0 0H24V24H0V0Z" fill="#F0F3FA"/>
<path fill-rule="evenodd" clip-rule="evenodd" d="M5.60007 12.0001L4.28564 17.5715L8.29536 14.9324H16.7142C17.4981 14.9323 18.2509 14.6255 18.8114 14.0774C19.3719 13.5294 19.6957 12.7838 19.7134 12.0001H5.60007ZM5.90307 10.7144H19.7142V10.2858C19.7142 9.6038 19.4433 8.94975 18.9611 8.46751C18.4788 7.98527 17.8248 7.71436 17.1428 7.71436H6.62393V7.7645L6.61107 7.71436L5.90307 10.7144Z" fill="#86E7F7"/>
<path fill-rule="evenodd" clip-rule="evenodd" d="M5.60822 12L4.28564 17.5714L8.21693 15H16.7142C17.5099 15 18.2729 14.6839 18.8355 14.1213C19.3981 13.5587 19.7142 12.7956 19.7142 12H5.60822Z" fill="#457CD6"/>
</g>
<defs>
<clipPath id="clip0_31_16203">
<rect width="24" height="24" fill="white"/>
</clipPath>
</defs>
</svg>

<svg xmlns="http://www.w3.org/2000/svg" width="24" height="24" fill="none" viewBox="0 0 24 24"><g clip-path="url(#a)"><path fill="#F0F3FA" d="M0 0h24v24H0z"/><path fill="#86E7F7" fill-rule="evenodd" d="m5.6 12-1.314 5.572 4.01-2.64h8.418a3 3 0 0 0 3-2.932zm.303-1.286h13.811v-.428a2.57 2.57 0 0 0-2.571-2.572H6.623v.05l-.012-.05z" clip-rule="evenodd"/><path fill="#457CD6" fill-rule="evenodd" d="m5.608 12-1.322 5.571L8.216 15h8.498a3 3 0 0 0 3-3z" clip-rule="evenodd"/></g><defs><clipPath id="a"><path fill="#fff" d="M0 0h24v24H0z"/></clipPath></defs></svg>
